products/org.csstudio.iter.css.product/SymbolLibrary_quad_hd/SVG/Electrical/Miscellaneous/Zigzag Connection with Neutral brought out.svg

<?xml version="1.0" encoding="UTF-8" standalone="no"?>
<!--
/*******************************************************************************
* Copyright (c) 2010-2016 ITER Organization.
* All rights reserved. This program and the accompanying materials
* are made available under the terms of the Eclipse Public License v1.0
* which accompanies this distribution, and is available at
* http://www.eclipse.org/legal/epl-v10.html
******************************************************************************/
-->
<!-- Created with Inkscape (http://www.inkscape.org/) -->

<svg
   xmlns:dc="http://purl.org/dc/elements/1.1/"
   xmlns:cc="http://creativecommons.org/ns#"
   xmlns:rdf="http://www.w3.org/1999/02/22-rdf-syntax-ns#"
   xmlns:svg="http://www.w3.org/2000/svg"
   xmlns="http://www.w3.org/2000/svg"
   xmlns:sodipodi="http://sodipodi.sourceforge.net/DTD/sodipodi-0.dtd"
   xmlns:inkscape="http://www.inkscape.org/namespaces/inkscape"
   width="25.869968pt"
   height="27.010487pt"
   viewBox="0 0 32.33746 33.763108"
   id="svg4173"
   version="1.1"
   inkscape:version="0.91 r13725"
   sodipodi:docname="OL_EE0710.svg">
  <defs
     id="defs4175" />
  <sodipodi:namedview
     id="base"
     pagecolor="#ffffff"
     bordercolor="#666666"
     borderopacity="1.0"
     inkscape:pageopacity="0.0"
     inkscape:pageshadow="2"
     inkscape:zoom="1.4"
     inkscape:cx="70.973999"
     inkscape:cy="120.16546"
     inkscape:document-units="px"
     inkscape:current-layer="layer1"
     showgrid="false"
     units="pt"
     fit-margin-top="4.5"
     fit-margin-left="4.5"
     fit-margin-bottom="4.5"
     fit-margin-right="4.5"
     inkscape:window-width="1366"
     inkscape:window-height="706"
     inkscape:window-x="-8"
     inkscape:window-y="-8"
     inkscape:window-maximized="1" />
  <metadata
     id="metadata4178">
    <rdf:RDF>
      <cc:Work
         rdf:about="">
        <dc:format>image/svg+xml</dc:format>
        <dc:type
           rdf:resource="http://purl.org/dc/dcmitype/StillImage" />
        <dc:title></dc:title>
      </cc:Work>
    </rdf:RDF>
  </metadata>
  <g
     inkscape:label="Layer 1"
     inkscape:groupmode="layer"
     id="layer1"
     transform="translate(-415.25984,-621.19494)">
    <g
       transform="matrix(1.25,0,0,1.25,418.73988,625.12406)"
       id="surface1">
      <path
         inkscape:connector-curvature="0"
         style="fill:#ffffff;fill-opacity:1;fill-rule:evenodd;stroke:none"
         d="m 2.640625,2.910156 0.00781,0 0,0.011719 -0.00781,0 z"
         id="path5" />
      <path
         inkscape:connector-curvature="0"
         style="fill:#ffffff;fill-opacity:1;fill-rule:evenodd;stroke:none"
         d="m 18.574219,18.847656 0.01172,0 0,0.0078 -0.01172,0 z"
         id="path7" />
      <path
         inkscape:connector-curvature="0"
         style="fill:#ffffff;fill-opacity:1;fill-rule:evenodd;stroke:none"
         d="m 2.628906,2.921875 0.00781,0 0,0.00781 -0.00781,0 z"
         id="path9" />
      <path
         inkscape:connector-curvature="0"
         style="fill:#ffffff;fill-opacity:1;fill-rule:evenodd;stroke:none"
         d="m 18.5625,18.855469 0.01172,0 0,0.01172 -0.01172,0 z"
         id="path11" />
      <path
         inkscape:connector-curvature="0"
         style="fill:none;stroke:#000000;stroke-width:1.20000994;stroke-linecap:butt;stroke-linejoin:miter;stroke-miterlimit:3;stroke-opacity:1"
         d="m 4.460407,10.1597 -2.05,1.370834 -2.410417,-1.3"
         transform="matrix(1.875,0,0,1.875,2.250019,-7.830688)"
         id="path13" />
      <path
         inkscape:connector-curvature="0"
         style="fill:none;stroke:#000000;stroke-width:1.20000994;stroke-linecap:butt;stroke-linejoin:miter;stroke-miterlimit:3;stroke-opacity:1"
         d="m 2.350403,6.73911 -2.349999667,1.841667 0,2.95"
         transform="matrix(1.875,0,0,1.875,10.608619,-10.393644)"
         id="path15" />
      <path
         inkscape:connector-curvature="0"
         style="fill:none;stroke:#000000;stroke-width:1.20000005;stroke-linecap:butt;stroke-linejoin:miter;stroke-miterlimit:3;stroke-opacity:1"
         d="M 5.16667e-4,6.99999 1.850517,8.860407 l 0,2.66875"
         transform="matrix(1.875,0,0,1.875,10.612313,-2.249981)"
         id="path17" />
      <path
         inkscape:connector-curvature="0"
         style="fill:#000000;fill-opacity:1;fill-rule:evenodd;stroke:#000000;stroke-width:0.72000003;stroke-linecap:round;stroke-linejoin:round;stroke-miterlimit:3;stroke-opacity:1"
         d="m 2.05409,10.505727 c 0,-0.566667 -0.458333,-1.027084 -1.027083,-1.027084 -0.566667,0 -1.0270836667,0.460417 -1.0270836667,1.027084 0,0.566666 0.4604166667,1.027083 1.0270836667,1.027083 0.56875,0 1.027083,-0.460417 1.027083,-1.027083 z"
         transform="matrix(1.875,0,0,1.875,8.769675,-8.627925)"
         id="path19" />
      <path
         inkscape:connector-curvature="0"
         style="fill:none;stroke:#000000;stroke-width:1.20000005;stroke-linecap:butt;stroke-linejoin:miter;stroke-miterlimit:3;stroke-opacity:1"
         d="m 4.03333e-4,11.53077 3.979166667,0"
         transform="matrix(1.875,0,0,1.875,10.608619,-10.393631)"
         id="path21" />
    </g>
  </g>
</svg>

<?xml version="1.0" encoding="UTF-8"?>
<!--
/*******************************************************************************
* Copyright (c) 2010-2016 ITER Organization.
* All rights reserved. This program and the accompanying materials
* are made available under the terms of the Eclipse Public License v1.0
* which accompanies this distribution, and is available at
* http://www.eclipse.org/legal/epl-v10.html
******************************************************************************/
-->
<svg xmlns="http://www.w3.org/2000/svg" xmlns:xlink="http://www.w3.org/1999/xlink" width="21pt" height="21pt" viewBox="0 0 21 21" version="1.1">
<g id="surface1">
<path style=" stroke:none;fill-rule:evenodd;fill:rgb(100%,100%,100%);fill-opacity:1;" d="M 2.640625 2.910156 L 2.648438 2.910156 L 2.648438 2.921875 L 2.640625 2.921875 Z "/>
<path style=" stroke:none;fill-rule:evenodd;fill:rgb(100%,100%,100%);fill-opacity:1;" d="M 18.574219 18.847656 L 18.585938 18.847656 L 18.585938 18.855469 L 18.574219 18.855469 Z "/>
<path style=" stroke:none;fill-rule:evenodd;fill:rgb(100%,100%,100%);fill-opacity:1;" d="M 2.628906 2.921875 L 2.636719 2.921875 L 2.636719 2.929688 L 2.628906 2.929688 Z "/>
<path style=" stroke:none;fill-rule:evenodd;fill:rgb(100%,100%,100%);fill-opacity:1;" d="M 18.5625 18.855469 L 18.574219 18.855469 L 18.574219 18.867188 L 18.5625 18.867188 Z "/>
<path style="fill:none;stroke-width:1.20001;stroke-linecap:butt;stroke-linejoin:miter;stroke:rgb(0%,0%,0%);stroke-opacity:1;stroke-miterlimit:3;" d="M 4.460407 10.1597 L 2.410407 11.530534 L -0.00001 10.230534 " transform="matrix(1.875,0,0,1.875,2.250019,-7.830688)"/>
<path style="fill:none;stroke-width:1.20001;stroke-linecap:butt;stroke-linejoin:miter;stroke:rgb(0%,0%,0%);stroke-opacity:1;stroke-miterlimit:3;" d="M 2.350403 6.73911 L 0.000403333 8.580777 L 0.000403333 11.530777 " transform="matrix(1.875,0,0,1.875,10.608619,-10.393644)"/>
<path style="fill:none;stroke-width:1.2;stroke-linecap:butt;stroke-linejoin:miter;stroke:rgb(0%,0%,0%);stroke-opacity:1;stroke-miterlimit:3;" d="M 0.000516667 6.99999 L 1.850517 8.860407 L 1.850517 11.529157 " transform="matrix(1.875,0,0,1.875,10.612313,-2.249981)"/>
<path style="fill-rule:evenodd;fill:rgb(0%,0%,0%);fill-opacity:1;stroke-width:0.72;stroke-linecap:round;stroke-linejoin:round;stroke:rgb(0%,0%,0%);stroke-opacity:1;stroke-miterlimit:3;" d="M 2.05409 10.505727 C 2.05409 9.93906 1.595757 9.478643 1.027007 9.478643 C 0.46034 9.478643 -0.0000766667 9.93906 -0.0000766667 10.505727 C -0.0000766667 11.072393 0.46034 11.53281 1.027007 11.53281 C 1.595757 11.53281 2.05409 11.072393 2.05409 10.505727 Z " transform="matrix(1.875,0,0,1.875,8.769675,-8.627925)"/>
<path style="fill:none;stroke-width:1.2;stroke-linecap:butt;stroke-linejoin:miter;stroke:rgb(0%,0%,0%);stroke-opacity:1;stroke-miterlimit:3;" d="M 0.000403333 11.53077 L 3.97957 11.53077 " transform="matrix(1.875,0,0,1.875,10.608619,-10.393631)"/>
</g>
</svg>
